src/img/vector/symbol/tools-hat.svg

<?xml version="1.0" encoding="utf-8"?>
<!-- Generator: Adobe Illustrator 19.0.0, SVG Export Plug-In . SVG Version: 6.00 Build 0)  -->
<svg version="1.1" id="Layer_1" xmlns="http://www.w3.org/2000/svg" xmlns:xlink="http://www.w3.org/1999/xlink" x="0px" y="0px"
	 width="85.127px" height="91.32401px" viewBox="0 0 85.127 91.32401" style="enable-background:new 0 0 85.127 91.32401;"
	 xml:space="preserve">
<style type="text/css">
	.st0{clip-path:url(#SVGID_2_);}
</style>
<g>
	<defs>
		<rect id="SVGID_1_" y="0.00001" width="85.127" height="91.324"/>
	</defs>
	<clipPath id="SVGID_2_">
		<use xlink:href="#SVGID_1_"  style="overflow:visible;"/>
	</clipPath>
	<path class="st0" d="M84.4595,27.6282l-41.063-27.376c-0.504-0.336-1.161-0.336-1.665,0l-41.064,27.376
		c-0.41599,0.278-0.667,0.747-0.667,1.248s0.25,0.97,0.667,1.248l6.23701,4.158v21.913c0,0.511,0.26099,0.987,0.68999,1.263
		l34.4,22.052c0.246,0.159,0.528,0.23799,0.809,0.23799c0.296,0,0.592-0.08699,0.845-0.261l17.947-12.244v8.538l-6.685,13.37199
		c-0.233,0.465-0.207,1.01801,0.064,1.46001c0.274,0.44099,0.757,0.711,1.277,0.711h13.688c0.52,0,1.004-0.27,1.27599-0.711
		c0.273-0.442,0.298-0.995,0.066-1.46001l-6.687-13.37199v-10.585l11.377-7.762c0.409-0.279,0.655-0.743,0.655-1.239v-20.849
		l7.833-5.222c0.417-0.278,0.667-0.747,0.667-1.248S84.8765,27.9062,84.4595,27.6282 M58.6785,88.3242l4.417-8.834l4.417,8.834
		H58.6785z M42.7775,76.4502l-32.873-21.075v-19.093l31.827,21.219c0.252,0.168,0.542,0.252,0.832,0.252
		c0.291,0,0.581-0.084,0.833-0.252l18.199-12.134v18.244L42.7775,76.4502z M73.6265,55.40321l-9.031,6.16199V43.36721l9.031-6.021
		V55.40321z M74.6055,33.0882c-0.221,0.082-0.416,0.213-0.57301,0.383l-10.937,7.291l-19.699-13.134
		c-0.691-0.46-1.622-0.273-2.081,0.416s-0.273,1.621,0.416,2.08l18.66,12.44l-17.828,11.886l-38.359-25.574l38.359-25.573
		l38.35999,25.573L74.6055,33.0882z"/>
</g>
</svg>

<svg xmlns="http://www.w3.org/2000/svg" xmlns:xlink="http://www.w3.org/1999/xlink" width="85.127" height="91.324"><defs><path id="a" d="M0 0h85.127v91.324H0z"/></defs><clipPath id="b"><use xlink:href="#a" overflow="visible"/></clipPath><path d="M84.46 27.628L43.397.252a1.501 1.501 0 0 0-1.665 0L.668 27.628a1.503 1.503 0 0 0 0 2.496l6.237 4.158v21.913c0 .511.26.987.69 1.263l34.4 22.052a1.49 1.49 0 0 0 1.654-.023l17.946-12.244v8.538l-6.684 13.372a1.506 1.506 0 0 0 .063 1.46c.275.441.758.711 1.278.711h13.687a1.5 1.5 0 0 0 1.342-2.17L64.594 75.78V65.196l11.377-7.762a1.5 1.5 0 0 0 .655-1.239V35.346l7.833-5.222a1.5 1.5 0 0 0 0-2.496M58.68 88.324l4.416-8.834 4.418 8.834h-8.835zM42.778 76.45L9.905 55.375V36.282l31.827 21.22a1.498 1.498 0 0 0 1.665 0l18.199-12.135v18.244l-18.818 12.84zm30.848-21.047l-9.03 6.162V43.367l9.03-6.02v18.056zm.98-22.315a1.477 1.477 0 0 0-.574.383l-10.937 7.291-19.699-13.134a1.5 1.5 0 0 0-1.665 2.496l18.66 12.44L42.563 54.45 4.204 28.876l38.36-25.573 38.36 25.573-6.319 4.212z" clip-path="url(#b)"/></svg>
